X:1
%
T:I Have But a Mark a Year
M:C
L:1/8
S:Chappell – Popular Music of the Olden Time  (1859)
Z:AK/Fiddler’s Companion
K:G
G2|Bc d2d2 cB|AB AG G3F|E2C2 FG A2|F2D2 z2 ED|
EF G2G2 FE|FG A2A2d2|B3G E2d2|B2G2 z2||
Bc|d2 ed dedc|d4 B2 ed| cBAG E2 A2|F2A2 z2Bc|
d3 d B2G2|E2A2F2d2|ed cB A2D2|E2 G2 z2||

